X: 66
T: 66. Christ, unser Herr zum Jordan kam
N: Derived from chor066.krn
C: Johann Sebastian Bach
%%abc-version 2.0
%%abcx-abcm2ps-target-version 5.9.1 (29 Sep 2008)
%%abc-creator hum2abc beta
%%abcx-conversion-date 2019/03/11 17:28:18
%%abc-edited-by Craig Stuart Sapp
%%humdrum-veritas 1918628633
%%humdrum-veritas-data 2086542820
%%
%%barnumbers 0
L: 1/4
M: C
%%staves [1 2 3 4]
V: 1 clef=treble
V: 2 clef=treble
V: 3 clef=treble-8
V: 4 clef=bass
K: C
[V:1] D/E/ [I:setbarnb 1]| 
[V:2] A, | 
[V:3] F/G/ | 
[V:4] D, | 
[V:1] FGAG | 
[V:2] DEFE | 
[V:3] A/B/ccc/B/ | 
[V:4] D,C,F,C, | 
[V:1] cB/A/!fermata!A=G | 
[V:2] EE!fermata!EE | 
[V:3] A^G!fermata!cB | 
[V:4] C,/D,/E,!fermata!A,,E, | 
[V:1] cBAG | 
[V:2] EEF/E/D | 
[V:3] AB/^c/dD/E/ | 
[V:4] A,=G,F,B,,/^C,/ | 
[V:1] FE!fermata!D :|]  
[V:2] A,/D^C/!fermata!A, :|]  
[V:3] F/G/A!fermata!F :|]  
[V:4] D,A,,!fermata!D, :|]  
[V:1] D [I:setbarnb 5]| 
[V:2] A, | 
[V:3] F/E/ | 
[V:4] D,/=C,/ | 
[V:1] GGEA | 
[V:2] D=C/B,/ C/D/E | 
[V:3] DGGc | 
[V:4] B,,/A,,/G,,C,B,,/A,,/ | 
[V:1] A^G!fermata!AA | 
[V:2] EE!fermata!EE | 
[V:3] B/A/B!fermata!cc | 
[V:4] E,E,,!fermata!A,,A,/=G,/ | 
[V:1] dde/d/c | 
[V:2] A=GGA/G/ | 
[V:3] cBc/B/A | 
[V:4] ^F,G,C,=F,/E,/ | 
[V:1] d/c/B!fermata!AB | 
[V:2] FB,/C//D//!fermata!CE | 
[V:3] B/A/^G!fermata!E^G | 
[V:4] D,E,!fermata!A,,E, | 
[V:1] cBAG | 
[V:2] EDC/D/E | 
[V:3] A/=G/ F/G/ A/B/ ^c/d/ | 
[V:4] A,D,/E,/F,E,/D,/ | 
[V:1] A/G/F!fermata!ED/E/ | 
[V:2] A,D!fermata!^CA, | 
[V:3] eA!fermata!AF/E/ | 
[V:4] ^C,D,!fermata!A,,D,/=C,/ | 
[V:1] FGA/G/F | 
[V:2] DEE/^C/D | 
[V:3] D/F/_BA_B- | 
[V:4] _B,,/A,,/G,,F,,B,,/A,,/ | 
[V:1] G/F/E!fermata!Dd | 
[V:2] E/D/^C!fermata!A,A | 
[V:3] BE/F//G//!fermata!FD | 
[V:4] G,,A,,!fermata!D,,^F, | 
[V:1] dded | 
[V:2] GGGA/D/ | 
[V:3] B/=c/ d/B/ c/B/A | 
[V:4] G,/A,/ B,/G,/C,=F, | 
[V:1] cB!fermata!A |]  
[V:2] E3/D/!fermata!^C |]  
[V:3] A^G!fermata!E |]  
[V:4] E,/D,/E,!fermata!A,, |]  



